!!!ONB: MCCC : IJH0449_02 : Extracted Monophonic Melody
!!!COM: Haydn, Joseph
!!!OPR: String Quartet in E-flat major
!!!OMV: 2
!!!SCT: Hob.III:71 ; Op.71 No.3
!!!ODT: 1793///
**kern
*thru
*k[b-e-]
*B-:
*clefF
*M2/4
8f
=1
8b-
8dd
8cc
8a
=2
8b-
16dd
16b-
8f
16.b-
32dd
=3
8ff
8dd
8gg
8ee
=4
4.ff
8f
=5
8b-
8dd
8cc
8a
=6
8b-
16dd
16b-
8g
8b-
=7
8a
8g
8f
8e
=8
4.d
16.f
32b
=9
8dd
8b
8ee-
8cc
=10
8b
16dd
16b
8g
8gg
=11
8ff#
8aa
8dd
8ff#
=12
4.gg
8ff
=13
8ee
8gg
8cc
8ee-
=14
8dd
8ff
8b-
8ee-
=15
8dd
8cc
8b-
16.cc
32a
=16
4.b-
8r
=17
4r
4ee-
=18
8dd-
16.cc
32a
8b-
8r
=19
4r
4gg-
=20
8ff
8aa
8bb-
8ccc
=21
8ddd-
8bb-
8gg
8ee
=22
8ff
8ccc
8aa-
8ff
=23
8gg
16bb-
16r
8ee
16gg
16r
=24
4.ff
16dd-
16ff
=25
8aa-
8ff
8bb-
8gg
=26
8aa-
8ff
8dd-
16a-
16cc
=27
8ee-
8cc
8ff
8dd
=28
8ee-
8cc
8a-
16b-
16cc
=29
8dd-
8ff
8aa-
16ff
16dd
=30
8ee-
8gg-
8bb-
16gg
16ee
=31
8aa-
16ff
16dd-
8gg-
16ee-
16cc
=32
4dd-
4r
=33
4r
4ee-
=34
8dd-
16.cc
32a
8b-
8r
=35
4r
4gg-
=36
8ff
8aa
8bb-
8aa-
=37
2gg-
=38
2ff
=39
4ee
4ff
=40
4.b-
8f
=41
8b-
8dd
8cc
8a
=42
8b-
16dd
16b-
8f
16.b-
32dd
=43
8ff
8dd
8gg
8ee
=44
4.ff
8f
=45
8b-
8dd
8cc
8a
=46
8b-
16dd
16b-
8g
8b-
=47
8a
8g
8f
8e
=48
4.d
16.f
32b
=49
8dd
8b
8ee-
8cc
=50
8b
16dd
16b
8g
8gg
=51
8ff#
8aa
8dd
8ff#
=52
4.gg
8ff
=53
8ee
8gg
8cc
8ee-
=54
8dd
8ff
8b-
8ee-
=55
8dd
8cc
8b-
16.cc
32a
=56
4.b-
8ff
=57
24bb-
24ff
24ee-
24dd
24cc
24b-
24a
24g
24f
24e-
24d
24c
=58
24B-
24d
24e-
24f
24e-
24d
24b-
24f
24b-
24dd
24b-
24dd
=59
24ff
24aa
24bb-
24ff
24aa
24bb-
24gg
24aa
24bb-
24gg
24aa
24bb-
=60
24ff
24gg
24ff
24ee-
24dd
24cc
24b-
24dd
24ee-
24ff
24gg
24aa
=61
24bb-
24ff
24ee-
24dd
24cc
24b-
24a
24g
24f#
24e-
24d
24c
=62
24B-
24d
24g
24b-
24dd
24gg
24bb-
24aa
24bb-
24ddd
24ccc
24bb-
=63
24aa
24bb-
24ccc
24bb-
24aa
24gg
24ff
24gg
24aa
24gg
24ff
24ee
=64
24dd
24a
24g
24f
24g
24a
8d
8f
=65
24dd
24b
24gg
24ff
24dd
24b
24cc
24a
24ff#
24ee-
24cc
24a
=66
24b
24cc
24dd
24cc
24b
24a
24g
24b
24dd
24gg
24ff#
24gg
=67
24ff#
24gg
24aa
24ff#
24gg
24aa
24dd
24ee
24ff#
24dd
24ee
24ff#
=68
24gg
24aa
24ff#
24gg
24aa
24ff#
24gg
24b
24cc
24dd
24ee
24ff
=69
24ee
24gg
24aa
24bb-
24gg
24ee
24cc
24dd
24ee
24ff
24cc
24ee-
=70
24dd
24ff
24gg
24aa-
24ff
24dd
24b-
24cc
24dd
24ee-
24b-
24gg
=71
24ff
24dd
24bb-
24gg
24ee-
24cc
24dd
24ff
24b-
24ee-
24cc
24a
=72
24b-
24f
24e-
24d
24e-
24f
8B-
8r
=73
2r
=74
4.r
8B-
=75
2g-[
=76
16g-]
16f
16g-
16a-
8b-
8g-
=77
4f
4g-
=78
4.a-
8g-[
=79
8g-]
8f
4e-
=80
4d-
4r
=81
4.r
8A-
=82
8f
8a-
8g-
8e-
=83
8f
8g-
4a-
=84
8a-
8cc-
8b-
8a-
=85
16g-
16a-
16g-
16f
16e-
16d-
16c
16B-
=86
4f
16e
16b-
16g
16e
=87
4f
16e
16b-
16g
16e
=88
6..f[
48f]
16g-
16g
16a
=89
8b-
8dd
8cc
8a
=90
8b-
16dd
16b-
16f
16b-
16dd
16ff
=91
16bb-
16ddd
16fff
16ddd
16ggg
16eee-
16bbb-
16ggg
=92
16fff
16ggg
16fff
16eee-
16ddd
16fff
16eee-
16ddd
=93
16ccc
16ddd
16ccc
16ddd
16ccc
16fff
16eee-
16ddd
=94
16ccc
16ddd
16ccc
16ddd
16ccc
16eee-
16ddd
16ccc
=95
16ddd
16ccc
16bb-
16ddd
16ccc
16aa
16bb-
16gg
=96
16ff
16aa
16ccc
16aa
16ff
16ee-
16dd
16cc
=97
8b-
8dd
8cc
8a
=98
8b-
16dd
16b-
16f
16b-
16dd
16ff
=99
16bb-
16ddd
16fff
16ddd
16ggg
16eee-
16bbb-
16ggg
=100
16fff
16ggg
16fff
16eee-
16ddd
16fff
16eee-
16ddd
=101
16ccc
16ddd
16ccc
16ddd
16ccc
16fff
16eee-
16ddd
=102
16ccc
16ddd
16ccc
16ddd
16ccc
16eee-
16ddd
16ccc
=103
16ddd
16ccc
16bb-
16ddd
16ccc
16aa
16bb-
16gg
=104
16ff
16aa
16ccc
16aa
16ff
16gg
16aa
16bb-
=105
16ccc
16ddd
16ccc
16ddd
16ccc
16eee-
16ddd
16ccc
=106
16ddd
16eee-
16ddd
16eee-
16ddd
16fff
16eee-
16ddd
=107
16ccc
16bb
16ccc
16bb
16ccc
16bb-
16aa
16bb-
=108
16aa
16gg
16ff
16gg
16ff
16ee-
16dd
16cc
=109
8b-
8dd
8cc
8a
=110
8b-
16dd
16b-
8f
16b-
16dd
=111
8ff
8dd
8gg
8ee
=112
4ff
4r
=113
8r
4ddd
16ccc
16bb-
=114
8aa
8gg
8ff
8r
=115
8r
4gg
16ff
16ee-
=116
8dd
8cc
8b-
8a
=117
16.g
32a
16.b-
32cc
8b-
8a
=118
4b-
4r
=119
4.r
16f
16a
=120
8cc
8a
8dd
8b
=121
8cc
8a
8f
8r
=122
4.r
16b-
16dd
=123
8ff
8dd
8gg
8ee
=124
8ff
8dd
8b-
8r
=125
2r
=126
8r
4ddd
16ccc
16bb-
=127
8aa
8gg
8ff
8r
=128
8r
4gg
16ff
16ee-
=129
8dd
8cc
8b-
8a
=130
16.g
32a
16.b-
32cc
8b-
8a
=131
8b-
8r
16.gg
32ee
16.gg
32ee
=132
8ff
8r
16.e-
32c
16.e-
32c
=133
8d
8r
16.gg
32ee
16.gg
32ee
=134
8ff
8r
16.e-
32c
16.e-
32c
=135
8d
8r
8bb-
8r
=136
4d
4r
==
*-
